src/lib/packages/icons/src/assets/filled/home-trend-up.svg

<svg width="24" height="24" viewBox="0 0 24 24" fill="none" xmlns="http://www.w3.org/2000/svg">
<path fill-rule="evenodd" clip-rule="evenodd" d="M19.5699 8.58608L13.606 3.58498C12.677 2.80598 11.3219 2.80598 10.3929 3.58498L4.42896 8.58608C3.52296 9.34608 2.99902 9.65302 2.99902 11.651V18C2.99902 20 3.99902 21 5.99902 21H17.999C19.999 21 20.999 20 20.999 18V11.651C21 9.65202 20.4769 9.34608 19.5699 8.58608ZM16.75 14.813C16.75 15.227 16.414 15.563 16 15.563C15.586 15.563 15.25 15.227 15.25 14.813V14.1231L13.691 15.6811C13.148 16.2251 12.198 16.2251 11.653 15.6811L10.474 14.501L8.53003 16.528C8.38403 16.674 8.192 16.7481 8 16.7481C7.808 16.7481 7.61597 16.675 7.46997 16.528C7.17697 16.235 7.17697 15.7601 7.46997 15.4671L9.49695 13.44C10.0409 12.896 10.992 12.896 11.536 13.44L12.714 14.619L14.2271 13.0611H13.5C13.086 13.0611 12.75 12.7251 12.75 12.3111C12.75 11.8971 13.086 11.5611 13.5 11.5611H16C16.098 11.5611 16.195 11.581 16.287 11.619C16.47 11.695 16.616 11.841 16.693 12.025C16.731 12.117 16.751 12.214 16.751 12.312V14.813H16.75Z" fill="currentColor"/>
</svg>

<svg xmlns="http://www.w3.org/2000/svg" width="24" height="24" fill="none"><path fill="currentColor" fill-rule="evenodd" d="m19.57 8.586-5.964-5.001a2.5 2.5 0 0 0-3.213 0L4.429 8.586c-.906.76-1.43 1.067-1.43 3.065V18c0 2 1 3 3 3h12c2 0 3-1 3-3v-6.349c.001-1.999-.522-2.305-1.43-3.065Zm-2.82 6.227a.75.75 0 0 1-1.5 0v-.69l-1.559 1.558c-.543.544-1.493.544-2.038 0l-1.179-1.18-1.944 2.027a.748.748 0 0 1-1.06 0 .75.75 0 0 1 0-1.06l2.027-2.028c.544-.544 1.495-.544 2.039 0l1.178 1.179 1.513-1.558H13.5a.75.75 0 0 1 0-1.5H16a.75.75 0 0 1 .751.751v2.501h-.001Z" clip-rule="evenodd"/></svg>
